X: 1
T: Ann and Dan
M:4/4
K: D middle=b
L:1/8
Q:1/4=120
| (fe) (fg) (fe) d2 | (de) eg aa a2 | (fe) (fg) (fe) d2 | (defe) d4 | (c'b) (c'd') (c'b) a2 | (c'b) ab c'd' c'2 |
(c'b) (c'd') (e'd') (c'b) | (a^g ab) (a=g fe) | (fe) (fg) (fe) d2 | (bc') d'e' f'f' f'2 | (f'e') (f'g') (a'g') f'2 | (f'e') (d'c') d'4 |]

